X: 1
T: Follow Me Up To Carlow
O: Ireland
Z: 1997 by John Chambers <jc:trillian.mit.edu>
N: A well-known Irish rebel tune.
R: jig
M: 6/8
L: 1/8
K: ADor
|: "Am"A>AA A2G |     E2F G3   |    A>AA    c2d | "(E)"e2d c2B \
|  "Am"A>AA A2G |     E2F G3   |    A>AA "G"B2G |  "Am"A3- A2z :|
|: "Em"e2f  g2f |     e2f g3   | "G"B>BB    B2A |      G2A B3 \
|  "Em"e2f  g2f |     e2f g3   | "G"B>BB    B2G |  "Am"A3- Az2 :|
